X:106
T:Enfield Wash. JJo8.106
B:J.Johnson Choice Collection Vol 8 1758
Z:vmp.Simon Wilson 2013 www.village-music-project.org.uk
M:6/8
L:1/8
Q:3/8=100
K:G
|:GABc2A|B2G AFD|GABc2e|dcBA3|GABc2A|B2G AFD|E3GAB|cAFG3:|
|:GABc2A|defg3|def gag|fdBc2e|def gag|fdB cAF|E3GAB|cAFG3:|

